X:1
T:Galsbils Gray
M:4/4
L:1/8
Z: Transcribed by Philip Whittaker
K:D
A|DFAF DGBG|FAdF GEEF|DFAF G/2A/2B/2c/2 dg|fd e/2f/2g/2e/2 fdd:||
g|fdaf gebg| fdaf geeg |fdaf gbag|fdAG FDDg|
fd f/2g/2a/2f/2 ge g/2a/2b/g/2|fd f/2g/2a/2f/2 geeg|
fdAF G/2A/2B/2c/2 dg|fd e/2f/2g/2e/2 fdd||

